svg/u1f479.svg

<svg viewBox="0 0 128 128" xmlns="http://www.w3.org/2000/svg">
  <g>
    <linearGradient id="SVGID_1_" gradientUnits="userSpaceOnUse" x1="64" x2="64" y1="29.1668" y2="93.733">
      <stop offset="0.3691" stop-color="#374C57"/>
      <stop offset="0.5463" stop-color="#263238"/>
    </linearGradient>
    <path d="M100.82,98.25c0,0,17.91-2.78,22.86-34.1c1.63-10.32,1.14-25.1,0.72-28.82 c-0.05-0.43-0.5-0.69-0.9-0.51c0,0-6.82,3.71-9.39,3.22c-1.68-0.32,12.52-5.65,9.57-29.09c-0.19-1.53-0.91-1.41-1.13-1.15 c-1.72,1.96-6.95,7.7-9.9,8.47c0,0,1.94-5.97,0.21-11.94c-0.1-0.35-0.51-0.52-0.85-0.38c-12.84,5.58-13.83-2.45-29,5.98 c-3.41,1.9-6.08,6.38-6.08,6.38S73.57,9.79,65.99,5.38C60.59,2.23,53,3.44,50.09,4.07c-0.43,0.09-0.54,0.65-0.18,0.91 c1.89,1.36,3.94,7.59,2.54,13.04C47.2,9.69,42.4,3.32,28.35,4.95C23.3,5.53,17.71,8.25,9.86,5.85C9.27,5.67,8.9,6.04,9.04,6.64 c1.74,7.5,9.86,10.3,10.12,16.59c0.03,0.71-0.84,1.08-1.33,0.57c-2.05-2.13-6.56-6.18-12.09-7.1c-0.49-0.08-0.95,0.44-0.69,0.86 c1.99,3.12,6.88,8.23,8.05,15.86c0.15,1,0.32,2.1-1.05,1.4c-1.37-0.7-3.35-2.09-5.16-4.6c-0.24-0.33-1.6-1.6-2.11,1.76 C3.88,37.86-0.27,67.97,9.97,82.9c11.83,17.26,17.37,16.26,17.37,16.26L100.82,98.25z" fill="url(#SVGID_1_)"/>
    <g>
      <path d="M112.52,44.05c0.73-0.75,1.49-1.45,2.23-1.94c2.14-1.42,3.07,0.75,2.82,2.83 c-0.9,7.56,1.96,15.13,1.59,22.74c-0.35,7.22-4.09,14.54-10.38,17.54c-0.36,0.17-0.79,0.33-1.15,0.14 c-0.39-0.21-0.5-0.73-0.56-1.18c-0.69-4.76-0.05-10.34-1.01-15.03c-0.91-4.45-1.43-7.69-0.69-12.36c0.69-4.31,2.25-7.24,5-10.36 C111.02,45.69,111.76,44.84,112.52,44.05z" fill="#CC3333"/>
      <path d="M15.26,44.05c-0.73-0.75-1.49-1.45-2.23-1.94c-2.14-1.42-3.07,0.75-2.82,2.83 c0.9,7.56-1.96,15.13-1.59,22.74C8.97,74.9,12.71,82.22,19,85.22c0.36,0.17,0.79,0.33,1.15,0.14c0.39-0.21,0.5-0.73,0.56-1.18 c0.69-4.76,0.05-10.34,1.01-15.03c0.91-4.45,1.43-7.69,0.69-12.36c-0.69-4.31-2.25-7.24-5-10.36 C16.76,45.69,16.03,44.84,15.26,44.05z" fill="#CC3333"/>
    </g>
    <g>
      <path d="M102.97,47.46c0,0,13.68,21.05,13.71,42.01c0.03,15.33-15.25,32.23-15.25,32.23 s-1.7-19.89-3.22-31.22S102.97,47.46,102.97,47.46z" fill="#374C57"/>
      <linearGradient id="SVGID_2_" gradientUnits="userSpaceOnUse" x1="102.9676" x2="102.9676" y1="118.9917" y2="70.3738">
        <stop offset="0.1055" stop-color="#374C57"/>
        <stop offset="0.5463" stop-color="#263238"/>
      </linearGradient>
      <path d="M103.76,65.09c0,0,3.64,11.41,4.47,20.12c1.43,15.09-6.89,37.48-6.89,37.48l-3.79-26.21 l4.19-19.5L103.76,65.09z" fill="url(#SVGID_2_)"/>
      <path d="M26.47,45.78c0,0-15.33,22.73-15.37,43.69c-0.03,15.33,15.25,32.23,15.25,32.23 s1.7-19.89,3.22-31.22S26.47,45.78,26.47,45.78z" fill="#374C57"/>
      <linearGradient id="SVGID_3_" gradientTransform="matrix(-1 0 0 1 49.7624 0)" gradientUnits="userSpaceOnUse" x1="24.9431" x2="24.9431" y1="118.9917" y2="70.3738">
        <stop offset="0.1055" stop-color="#374C57"/>
        <stop offset="0.5463" stop-color="#263238"/>
      </linearGradient>
      <path d="M24.03,65.09c0,0-3.64,11.41-4.47,20.12c-1.43,15.09,6.89,37.48,6.89,37.48l3.79-26.21 l-4.19-19.5L24.03,65.09z" fill="url(#SVGID_3_)"/>
    </g>
    <path d="M85.27,30.74c-9.58,0-14.14,3.55-21.29,3.58c-7.15-0.03-11.71-3.58-21.29-3.58 c-17.88,0-21.39,43.26-21.39,44.99c0,32.34,21.45,48.96,42.67,48.96s42.67-16.62,42.67-48.96C106.66,74,103.16,30.74,85.27,30.74z" fill="#F04E3E"/>
    <g>
      <g>
        <path d="M98.25,62.33c0.57,6.73-3.98,13.15-11.81,14.58c-7.83,1.43-14.88-2.87-16.54-9.41 c-2.75-10.88,3.91-13.61,11.81-14.58C90.03,51.9,97.66,55.34,98.25,62.33z" fill="#A81919"/>
        <ellipse cx="83.52" cy="66.95" fill="#FFECB3" rx="9.81" ry="8.92" transform="matrix(0.9665 -0.2565 0.2565 0.9665 -14.3794 23.6672)"/>
        <ellipse cx="83.25" cy="67.46" fill="#212121" rx="4.06" ry="4.3" transform="matrix(0.9975 -0.0713 0.0713 0.9975 -4.596 6.1046)"/>
      </g>
      <g>
        <path d="M30.44,62.33c-0.57,6.73,3.98,13.15,11.81,14.58c7.83,1.43,14.88-2.87,16.54-9.41 c2.75-10.88-3.91-13.61-11.81-14.58C38.66,51.9,31.04,55.34,30.44,62.33z" fill="#A81919"/>
        <ellipse cx="45.17" cy="66.95" fill="#FFECB3" rx="8.92" ry="9.81" transform="matrix(0.2565 -0.9665 0.9665 0.2565 -31.1219 93.4349)"/>
        <ellipse cx="45.45" cy="67.46" fill="#212121" rx="4.3" ry="4.06" transform="matrix(0.0713 -0.9975 0.9975 0.0713 -25.0733 107.9843)"/>
      </g>
    </g>
    <path d="M92.39,89.75c-0.3,0-0.61,0.05-0.92,0.15c-5.27,1.71-15.63,4.51-27.58,4.51s-22.31-2.79-27.58-4.51 c-0.31-0.1-0.62-0.15-0.92-0.15c-1.75,0-3.28,0.79-2.83,2.59c0.99,3.96,3.8,11.15,6.62,14.88c4.92,6.52,7.64,8.59,11.61,8.69 c0.18,0,0.35,0.01,0.52,0.01c4.99,0,5.91-1.8,12.59-1.8c6.68,0,7.6,1.8,12.59,1.8c0.17,0,0.34,0,0.52-0.01 c3.97-0.09,6.68-2.16,11.61-8.69c2.82-3.73,5.82-10.65,6.62-14.94C95.68,90.49,94.15,89.75,92.39,89.75L92.39,89.75z" fill="#281010"/>
    <g>
      <path d="M60.65,101.1c0-1.1,0-3.85,0-3.85s5.72,0,6.38,0c0,0,0,2.09,0,3.85s-1.43,2.53-3.19,2.53 C62.08,103.63,60.65,102.86,60.65,101.1z" fill="#FFF8E1"/>
      <path d="M51.83,99.98c0.2-1.08,0.69-3.79,0.69-3.79s5.62,1.02,6.27,1.14c0,0-0.37,2.06-0.69,3.79 c-0.31,1.73-1.86,2.23-3.59,1.92C52.78,102.72,51.51,101.71,51.83,99.98z" fill="#FFF8E1"/>
      <path d="M75.96,99.98c-0.2-1.08-0.69-3.79-0.69-3.79s-5.62,1.02-6.27,1.14c0,0,0.37,2.06,0.69,3.79 c0.31,1.73,1.86,2.23,3.59,1.92C75.01,102.72,76.27,101.71,75.96,99.98z" fill="#FFF8E1"/>
    </g>
    <g>
      <path d="M67.08,107.5c0,1.1,0,3.85,0,3.85s-5.72,0-6.38,0c0,0,0-2.09,0-3.85s1.43-2.53,3.19-2.53 S67.08,105.74,67.08,107.5z" fill="#FFF8E1"/>
      <path d="M76.48,107.53c0,1.1,0,3.85,0,3.85s-5.72,0-6.38,0c0,0,0-2.09,0-3.85s1.43-2.53,3.19-2.53 S76.48,105.77,76.48,107.53z" fill="#FFF8E1"/>
      <path d="M57.69,107.5c0,1.1,0,3.85,0,3.85s-5.72,0-6.38,0c0,0,0-2.09,0-3.85s1.43-2.53,3.19-2.53 C56.26,104.97,57.69,105.74,57.69,107.5z" fill="#FFF8E1"/>
    </g>
    <g>
      <path d="M84.68,94.49c-0.53,2.37-0.49,4.06,0.91,7.09c0.33,0.72,0.67,1.58,0.18,2.21 c-0.55,0.71-1.58,0.66-2.55,0.33c-3.18-1.09-5.71-3.91-6.45-7.19" fill="#FFF8E1"/>
      <path d="M43.11,94.49c0.53,2.37,0.49,4.06-0.91,7.09c-0.33,0.72-0.67,1.58-0.18,2.21 c0.55,0.71,1.58,0.66,2.55,0.33c3.18-1.09,5.71-3.91,6.45-7.19" fill="#FFF8E1"/>
    </g>
    <path d="M35.94,93.89c0,0,1.23,0.29,1.94,0.62c3.52,1.67,12,4.79,26.01,4.79s22.48-3.13,26.01-4.79 c0.71-0.33,1.93-0.35,1.93-0.35c-1.24,3.36-3.79,8.59-5.59,11.05c-4.3,6.16-9.13,6.16-13.72,4.94c-1.95-0.54-4.82-1.21-8.62-1.21 c-3.95,0-6.68,0.67-8.62,1.21c-4.95,1.21-9.42,0.63-13.72-4.94C39.75,102.75,37.13,97.38,35.94,93.89z M93.38,88.89 c-0.31,0-0.63,0.05-0.95,0.16c-5.45,1.83-16.17,4.82-28.54,4.82s-23.08-2.99-28.54-4.82c-0.32-0.11-0.64-0.16-0.95-0.16 c-1.81,0-3.4,0.85-2.93,2.77c1.02,4.23,3.93,11.93,6.85,15.92c5.09,6.98,7.9,9.19,12.01,9.29c0.18,0,0.36,0.01,0.53,0.01 c5.16,0,6.12-1.93,13.03-1.93c6.91,0,7.87,1.93,13.03,1.93c0.17,0,0.35,0,0.53-0.01c4.1-0.1,6.92-2.31,12.01-9.29 c2.91-3.99,6.03-11.39,6.85-15.98C96.78,89.68,95.19,88.89,93.38,88.89L93.38,88.89z" fill="#B31B1B"/>
    <path d="M92.43,89.05c-5.47,1.79-16.17,4.82-28.54,4.82s-23.04-3.12-28.54-4.82 c-1.57-0.49-3.81-0.73-3.89,1.29c-0.08,2.01,5.5,3.95,5.84,4.08c3.89,1.56,12.58,4.88,26.59,4.88s22.46-3.01,26.1-4.4 c1.92-0.73,6.43-2.55,6.32-4.6C96.23,88.58,94.27,88.45,92.43,89.05z" fill="#CC2D2D"/>
    <g>
      <path d="M79.08,80.67c-0.94-1.95-3.94-3.09-6.46-1c-0.8,0.66-1.95,0.08-2.72-1.03 c-1.73-2.48-2.91-8.88-6.01-8.88s-4.28,6.4-6.01,8.88c-0.78,1.11-2.14,1.51-2.72,1.03c-2.52-2.08-5.52-0.94-6.46,1 c-1.11,2.31-0.31,4.33,1.43,5.48c1.47,0.98,3.25,0.81,4.49,0.2c1.21-0.6,1.76,0.12,2.83,0.92c2.35,1.75,4.7,2.59,6.43,2.59 c1.73,0,4.08-0.83,6.43-2.59c1.07-0.8,1.62-1.52,2.83-0.92c1.24,0.61,3.02,0.78,4.49-0.2C79.4,85,80.2,82.98,79.08,80.67z" fill="#FF8A66"/>
      <g>
        <path d="M56.31,84.45c-0.41-0.39-0.87-0.74-1.41-0.9c-0.54-0.16-1.29-0.05-1.74,0.51 c-0.48,0.59-0.46,1.56,0.13,2.04c0.76,0.63,1.67,0.37,2.37,0.07c1.35,1.38,3.77,2.36,3.77,2.36S56.87,84.98,56.31,84.45z" fill="#CC2D2D"/>
        <path d="M71.48,84.45c0.41-0.39,0.87-0.74,1.41-0.9c0.54-0.16,1.29-0.05,1.74,0.51 c0.48,0.59,0.46,1.56-0.13,2.04c-0.76,0.63-1.67,0.37-2.37,0.07c-1.35,1.38-3.65,2.3-3.65,2.3S70.92,84.98,71.48,84.45z" fill="#CC2D2D"/>
      </g>
    </g>
    <g>
      <path d="M88.31,78.43c-3.01,2.96-2.23,6.76,0.55,7.51c2.1,0.57,4.39,0.42,6.49-0.16 c1.89-0.52,3.73-1.28,5.11-2.49c2.74-2.41,2.67-7.17-1.82-8.15C95.16,74.38,90.35,76.43,88.31,78.43z" fill="#FF8A66"/>
      <path d="M39.47,78.43c3.01,2.96,2.23,6.76-0.55,7.51c-2.1,0.57-4.39,0.42-6.49-0.16 c-1.89-0.52-3.73-1.28-5.11-2.49c-2.74-2.41-2.67-7.17,1.82-8.15C32.62,74.38,37.43,76.43,39.47,78.43z" fill="#FF8A66"/>
    </g>
    <g>
      <g>
        <path d="M95.96,42.65c4.93-9.08,6.03-21.23,4.24-29.32c-0.38-1.72-2.16-6.47-5.06-6.1 c-3.08,0.4-1.86,4.45-2.35,8.08c-1.63,12.07-7.57,15.23-9.84,17.57c-1.44,1.48-2.05,4.88,2.53,8.83 C90.06,45.68,94.9,44.59,95.96,42.65z" fill="#F2A600"/>
        <path d="M97.6,30.36c-1.25,2.86-5.79,8.87-10.57,6.43c-1.56-0.8-2.36-3.32-1.4-4.78 c1.37-2.11,2.42-3.8,3.24-5.32c1.65-2.41,3.18-5.9,3.92-11.39c0.49-3.63-0.73-7.67,2.35-8.08 C101.51,7.24,100.34,24.09,97.6,30.36z" fill="#FFCA28"/>
      </g>
      <g>
        <path d="M32.4,42.72c-4.93-9.08-6.6-21.3-4.81-29.39c0.38-1.72,2.16-6.47,5.06-6.1 c3.08,0.4,1.86,4.45,2.35,8.08c1.63,12.07,7.64,15.35,9.91,17.69c1.44,1.48,1.98,4.76-2.6,8.72S33.45,44.66,32.4,42.72z" fill="#F2A600"/>
        <path d="M30.19,30.36c1.25,2.86,5.79,8.87,10.57,6.43c1.56-0.8,2.36-3.32,1.4-4.78 c-1.37-2.11-2.42-3.8-3.24-5.32c-1.65-2.41-3.18-5.9-3.92-11.39c-0.49-3.63,0.73-7.67-2.35-8.08 C26.28,7.24,27.45,24.09,30.19,30.36z" fill="#FFCA28"/>
      </g>
    </g>
  </g>
</svg>

<svg viewBox="0 0 128 128" xmlns="http://www.w3.org/2000/svg">
  <defs>
    <linearGradient id="SVGID_1_" gradientUnits="userSpaceOnUse" x1="64" x2="64" y1="29.1668" y2="93.733">
      <stop offset="0.3691" stop-color="#374C57"/>
      <stop offset="0.5463" stop-color="#263238"/>
    </linearGradient>
    <linearGradient id="SVGID_2_" gradientUnits="userSpaceOnUse" x1="102.9676" x2="102.9676" y1="118.9917" y2="70.3738">
      <stop offset="0.1055" stop-color="#374C57"/>
      <stop offset="0.5463" stop-color="#263238"/>
    </linearGradient>
    <linearGradient id="SVGID_3_" gradientTransform="matrix(-1 0 0 1 0 0)" gradientUnits="userSpaceOnUse" x1="-24.8193" x2="-24.8193" y1="118.9917" y2="70.3738">
      <stop offset="0.1055" stop-color="#374C57"/>
      <stop offset="0.5463" stop-color="#263238"/>
    </linearGradient>
  </defs>
  <path d="M100.82,98.25 C100.82,98.25 118.73,95.47 123.68,64.15 C125.31,53.83 124.82,39.05 124.4,35.33 C124.35,34.9 123.9,34.64 123.5,34.82 C123.5,34.82 116.68,38.53 114.11,38.04 C112.43,37.72 126.63,32.39 123.68,8.95 C123.49,7.42 122.77,7.54 122.55,7.8 C120.83,9.76 115.6,15.5 112.65,16.27 C112.65,16.27 114.59,10.3 112.86,4.33 C112.76,3.98 112.35,3.81 112.01,3.95 C99.17,9.53 98.18,1.5 83.01,9.93 C79.6,11.83 76.93,16.31 76.93,16.31 C76.93,16.31 73.57,9.79 65.99,5.38 C60.59,2.23 53,3.44 50.09,4.07 C49.66,4.16 49.55,4.72 49.91,4.98 C51.8,6.34 53.85,12.57 52.45,18.02 C47.2,9.69 42.4,3.32 28.35,4.95 C23.3,5.53 17.71,8.25 9.86,5.85 C9.27,5.67 8.9,6.04 9.04,6.64 C10.78,14.14 18.9,16.94 19.16,23.23 C19.19,23.94 18.32,24.31 17.83,23.8 C15.78,21.67 11.27,17.62 5.74,16.7 C5.25,16.62 4.79,17.14 5.05,17.56 C7.04,20.68 11.93,25.79 13.1,33.42 C13.25,34.42 13.42,35.52 12.05,34.82 C10.68,34.12 8.7,32.73 6.89,30.22 C6.65,29.89 5.29,28.62 4.78,31.98 C3.88,37.86 -0.27,67.97 9.97,82.9 C21.8,100.16 27.34,99.16 27.34,99.16 L100.82,98.25 Z" fill="url(#SVGID_1_)"/>
  <path d="M112.52,44.05 C113.25,43.3 114.01,42.6 114.75,42.11 C116.89,40.69 117.82,42.86 117.57,44.94 C116.67,52.5 119.53,60.07 119.16,67.68 C118.81,74.9 115.07,82.22 108.78,85.22 C108.42,85.39 107.99,85.55 107.63,85.36 C107.24,85.15 107.13,84.63 107.07,84.18 C106.38,79.42 107.02,73.84 106.06,69.15 C105.15,64.7 104.63,61.46 105.37,56.79 C106.06,52.48 107.62,49.55 110.37,46.43 C111.02,45.69 111.76,44.84 112.52,44.05 Z" fill="#CC3333"/>
  <path d="M15.26,44.05 C14.53,43.3 13.77,42.6 13.03,42.11 C10.89,40.69 9.96,42.86 10.21,44.94 C11.11,52.5 8.25,60.07 8.62,67.68 C8.97,74.9 12.71,82.22 19,85.22 C19.36,85.39 19.79,85.55 20.15,85.36 C20.54,85.15 20.65,84.63 20.71,84.18 C21.4,79.42 20.76,73.84 21.72,69.15 C22.63,64.7 23.15,61.46 22.41,56.79 C21.72,52.48 20.16,49.55 17.41,46.43 C16.76,45.69 16.03,44.84 15.26,44.05 Z" fill="#CC3333"/>
  <path d="M102.97,47.46 C102.97,47.46 116.65,68.51 116.68,89.47 C116.71,104.8 101.43,121.7 101.43,121.7 C101.43,121.7 99.73,101.81 98.21,90.48 C96.69,79.15 102.97,47.46 102.97,47.46 Z" fill="#374C57"/>
  <path d="M103.76,65.09 C103.76,65.09 107.4,76.5 108.23,85.21 C109.66,100.3 101.34,122.69 101.34,122.69 L97.55,96.48 L101.74,76.98 L103.76,65.09 Z" fill="url(#SVGID_2_)"/>
  <path d="M26.47,45.78 C26.47,45.78 11.14,68.51 11.1,89.47 C11.07,104.8 26.35,121.7 26.35,121.7 C26.35,121.7 28.05,101.81 29.57,90.48 C31.09,79.15 26.47,45.78 26.47,45.78 Z" fill="#374C57"/>
  <path d="M24.03,65.09 C24.03,65.09 20.39,76.5 19.56,85.21 C18.13,100.3 26.45,122.69 26.45,122.69 L30.24,96.48 L26.05,76.98 L24.03,65.09 Z" fill="url(#SVGID_3_)"/>
  <path d="M85.27,30.74 C75.69,30.74 71.13,34.29 63.98,34.32 C56.83,34.29 52.27,30.74 42.69,30.74 C24.81,30.74 21.3,74 21.3,75.73 C21.3,108.07 42.75,124.69 63.97,124.69 C85.19,124.69 106.64,108.07 106.64,75.73 C106.66,74 103.16,30.74 85.27,30.74 Z" fill="#F04E3E"/>
  <path d="M98.25,62.33 C98.82,69.06 94.27,75.48 86.44,76.91 C78.61,78.34 71.56,74.04 69.9,67.5 C67.15,56.62 73.81,53.89 81.71,52.92 C90.03,51.9 97.66,55.34 98.25,62.33 Z" fill="#A81919"/>
  <path d="M92.997,64.435 C94.26,69.197 91.04,74.183 85.803,75.573 C80.567,76.962 75.298,74.229 74.034,69.468 C72.77,64.706 75.991,59.72 81.227,58.33 C86.464,56.941 91.733,59.674 92.997,64.435 Z" fill="#FFECB3"/>
  <path d="M87.306,67.171 C87.475,69.54 85.799,71.59 83.562,71.749 C81.326,71.909 79.375,70.119 79.206,67.75 C79.037,65.381 80.713,63.331 82.949,63.171 C85.186,63.011 87.136,64.802 87.306,67.171 Z" fill="#212121"/>
  <path d="M30.44,62.33 C29.87,69.06 34.42,75.48 42.25,76.91 C50.08,78.34 57.13,74.04 58.79,67.5 C61.54,56.62 54.88,53.89 46.98,52.92 C38.66,51.9 31.04,55.34 30.44,62.33 Z" fill="#A81919"/>
  <path d="M47.459,58.33 C52.696,59.719 55.916,64.706 54.653,69.467 C53.389,74.228 48.12,76.962 42.883,75.572 C37.647,74.182 34.426,69.196 35.69,64.435 C36.954,59.673 42.223,56.94 47.459,58.33 Z" fill="#FFECB3"/>
  <path d="M45.765,63.169 C48.002,63.328 49.678,65.378 49.508,67.747 C49.339,70.116 47.389,71.907 45.152,71.747 C42.915,71.587 41.239,69.537 41.409,67.168 C41.578,64.799 43.529,63.009 45.765,63.169 Z" fill="#212121"/>
  <path d="M92.39,89.75 C92.09,89.75 91.78,89.8 91.47,89.9 C86.2,91.61 75.84,94.41 63.89,94.41 C51.94,94.41 41.58,91.62 36.31,89.9 C36,89.8 35.69,89.75 35.39,89.75 C33.64,89.75 32.11,90.54 32.56,92.34 C33.55,96.3 36.36,103.49 39.18,107.22 C44.1,113.74 46.82,115.81 50.79,115.91 C50.97,115.91 51.14,115.92 51.31,115.92 C56.3,115.92 57.22,114.12 63.9,114.12 C70.58,114.12 71.5,115.92 76.49,115.92 C76.66,115.92 76.83,115.92 77.01,115.91 C80.98,115.82 83.69,113.75 88.62,107.22 C91.44,103.49 94.44,96.57 95.24,92.28 C95.68,90.49 94.15,89.75 92.39,89.75 L92.39,89.75 Z" fill="#281010"/>
  <path d="M60.65,101.1 C60.65,100 60.65,97.25 60.65,97.25 C60.65,97.25 66.37,97.25 67.03,97.25 C67.03,97.25 67.03,99.34 67.03,101.1 C67.03,102.86 65.6,103.63 63.84,103.63 C62.08,103.63 60.65,102.86 60.65,101.1 Z" fill="#FFF8E1"/>
  <path d="M51.83,99.98 C52.03,98.9 52.52,96.19 52.52,96.19 C52.52,96.19 58.14,97.21 58.79,97.33 C58.79,97.33 58.42,99.39 58.1,101.12 C57.79,102.85 56.24,103.35 54.51,103.04 C52.78,102.72 51.51,101.71 51.83,99.98 Z" fill="#FFF8E1"/>
  <path d="M75.96,99.98 C75.76,98.9 75.27,96.19 75.27,96.19 C75.27,96.19 69.65,97.21 69,97.33 C69,97.33 69.37,99.39 69.69,101.12 C70,102.85 71.55,103.35 73.28,103.04 C75.01,102.72 76.27,101.71 75.96,99.98 Z" fill="#FFF8E1"/>
  <path d="M67.08,107.5 C67.08,108.6 67.08,111.35 67.08,111.35 C67.08,111.35 61.36,111.35 60.7,111.35 C60.7,111.35 60.7,109.26 60.7,107.5 C60.7,105.74 62.13,104.97 63.89,104.97 C65.65,104.97 67.08,105.74 67.08,107.5 Z" fill="#FFF8E1"/>
  <path d="M76.48,107.53 C76.48,108.63 76.48,111.38 76.48,111.38 C76.48,111.38 70.76,111.38 70.1,111.38 C70.1,111.38 70.1,109.29 70.1,107.53 C70.1,105.77 71.53,105 73.29,105 C75.05,105 76.48,105.77 76.48,107.53 Z" fill="#FFF8E1"/>
  <path d="M57.69,107.5 C57.69,108.6 57.69,111.35 57.69,111.35 C57.69,111.35 51.97,111.35 51.31,111.35 C51.31,111.35 51.31,109.26 51.31,107.5 C51.31,105.74 52.74,104.97 54.5,104.97 C56.26,104.97 57.69,105.74 57.69,107.5 Z" fill="#FFF8E1"/>
  <path d="M84.68,94.49 C84.15,96.86 84.19,98.55 85.59,101.58 C85.92,102.3 86.26,103.16 85.77,103.79 C85.22,104.5 84.19,104.45 83.22,104.12 C80.04,103.03 77.51,100.21 76.77,96.93" fill="#FFF8E1"/>
  <path d="M43.11,94.49 C43.64,96.86 43.6,98.55 42.2,101.58 C41.87,102.3 41.53,103.16 42.02,103.79 C42.57,104.5 43.6,104.45 44.57,104.12 C47.75,103.03 50.28,100.21 51.02,96.93" fill="#FFF8E1"/>
  <path d="M35.94,93.89 C35.94,93.89 37.17,94.18 37.88,94.51 C41.4,96.18 49.88,99.3 63.89,99.3 C77.9,99.3 86.37,96.17 89.9,94.51 C90.61,94.18 91.83,94.16 91.83,94.16 C90.59,97.52 88.04,102.75 86.24,105.21 C81.94,111.37 77.11,111.37 72.52,110.15 C70.57,109.61 67.7,108.94 63.9,108.94 C59.95,108.94 57.22,109.61 55.28,110.15 C50.33,111.36 45.86,110.78 41.56,105.21 C39.75,102.75 37.13,97.38 35.94,93.89 Z M93.38,88.89 C93.07,88.89 92.75,88.94 92.43,89.05 C86.98,90.88 76.26,93.87 63.89,93.87 C51.52,93.87 40.81,90.88 35.35,89.05 C35.03,88.94 34.71,88.89 34.4,88.89 C32.59,88.89 31,89.74 31.47,91.66 C32.49,95.89 35.4,103.59 38.32,107.58 C43.41,114.56 46.22,116.77 50.33,116.87 C50.51,116.87 50.69,116.88 50.86,116.88 C56.02,116.88 56.98,114.95 63.89,114.95 C70.8,114.95 71.76,116.88 76.92,116.88 C77.09,116.88 77.27,116.88 77.45,116.87 C81.55,116.77 84.37,114.56 89.46,107.58 C92.37,103.59 95.49,96.19 96.31,91.6 C96.78,89.68 95.19,88.89 93.38,88.89 L93.38,88.89 Z" fill="#B31B1B"/>
  <path d="M92.43,89.05 C86.96,90.84 76.26,93.87 63.89,93.87 C51.52,93.87 40.85,90.75 35.35,89.05 C33.78,88.56 31.54,88.32 31.46,90.34 C31.38,92.35 36.96,94.29 37.3,94.42 C41.19,95.98 49.88,99.3 63.89,99.3 C77.9,99.3 86.35,96.29 89.99,94.9 C91.91,94.17 96.42,92.35 96.31,90.3 C96.23,88.58 94.27,88.45 92.43,89.05 Z" fill="#CC2D2D"/>
  <path d="M79.08,80.67 C78.14,78.72 75.14,77.58 72.62,79.67 C71.82,80.33 70.67,79.75 69.9,78.64 C68.17,76.16 66.99,69.76 63.89,69.76 C60.79,69.76 59.61,76.16 57.88,78.64 C57.1,79.75 55.74,80.15 55.16,79.67 C52.64,77.59 49.64,78.73 48.7,80.67 C47.59,82.98 48.39,85 50.13,86.15 C51.6,87.13 53.38,86.96 54.62,86.35 C55.83,85.75 56.38,86.47 57.45,87.27 C59.8,89.02 62.15,89.86 63.88,89.86 C65.61,89.86 67.96,89.03 70.31,87.27 C71.38,86.47 71.93,85.75 73.14,86.35 C74.38,86.96 76.16,87.13 77.63,86.15 C79.4,85 80.2,82.98 79.08,80.67 Z" fill="#FF8A66"/>
  <path d="M56.31,84.45 C55.9,84.06 55.44,83.71 54.9,83.55 C54.36,83.39 53.61,83.5 53.16,84.06 C52.68,84.65 52.7,85.62 53.29,86.1 C54.05,86.73 54.96,86.47 55.66,86.17 C57.01,87.55 59.43,88.53 59.43,88.53 C59.43,88.53 56.87,84.98 56.31,84.45 Z" fill="#CC2D2D"/>
  <path d="M71.48,84.45 C71.89,84.06 72.35,83.71 72.89,83.55 C73.43,83.39 74.18,83.5 74.63,84.06 C75.11,84.65 75.09,85.62 74.5,86.1 C73.74,86.73 72.83,86.47 72.13,86.17 C70.78,87.55 68.48,88.47 68.48,88.47 C68.48,88.47 70.92,84.98 71.48,84.45 Z" fill="#CC2D2D"/>
  <path d="M88.31,78.43 C85.3,81.39 86.08,85.19 88.86,85.94 C90.96,86.51 93.25,86.36 95.35,85.78 C97.24,85.26 99.08,84.5 100.46,83.29 C103.2,80.88 103.13,76.12 98.64,75.14 C95.16,74.38 90.35,76.43 88.31,78.43 Z" fill="#FF8A66"/>
  <path d="M39.47,78.43 C42.48,81.39 41.7,85.19 38.92,85.94 C36.82,86.51 34.53,86.36 32.43,85.78 C30.54,85.26 28.7,84.5 27.32,83.29 C24.58,80.88 24.65,76.12 29.14,75.14 C32.62,74.38 37.43,76.43 39.47,78.43 Z" fill="#FF8A66"/>
  <path d="M95.96,42.65 C100.89,33.57 101.99,21.42 100.2,13.33 C99.82,11.61 98.04,6.86 95.14,7.23 C92.06,7.63 93.28,11.68 92.79,15.31 C91.16,27.38 85.22,30.54 82.95,32.88 C81.51,34.36 80.9,37.76 85.48,41.71 C90.06,45.68 94.9,44.59 95.96,42.65 Z" fill="#F2A600"/>
  <path d="M97.6,30.36 C96.35,33.22 91.81,39.23 87.03,36.79 C85.47,35.99 84.67,33.47 85.63,32.01 C87,29.9 88.05,28.21 88.87,26.69 C90.52,24.28 92.05,20.79 92.79,15.3 C93.28,11.67 92.06,7.63 95.14,7.22 C101.51,7.24 100.34,24.09 97.6,30.36 Z" fill="#FFCA28"/>
  <path d="M32.4,42.72 C27.47,33.64 25.8,21.42 27.59,13.33 C27.97,11.61 29.75,6.86 32.65,7.23 C35.73,7.63 34.51,11.68 35,15.31 C36.63,27.38 42.64,30.66 44.91,33 C46.35,34.48 46.89,37.76 42.31,41.72 C37.73,45.68 33.45,44.66 32.4,42.72 Z" fill="#F2A600"/>
  <path d="M30.19,30.36 C31.44,33.22 35.98,39.23 40.76,36.79 C42.32,35.99 43.12,33.47 42.16,32.01 C40.79,29.9 39.74,28.21 38.92,26.69 C37.27,24.28 35.74,20.79 35,15.3 C34.51,11.67 35.73,7.63 32.65,7.22 C26.28,7.24 27.45,24.09 30.19,30.36 Z" fill="#FFCA28"/>
</svg>
